X:1
T:Title
%%score 1 ( 2 3 )
L:1/8
Q:1/4=100
M:4/4
K:Eb
V:1 treble nm="Strings 1, Treble"
V:2 bass nm="Strings 1, Bass"
V:3 bass 
V:1
 z4 z2 [EG]2 | [GB]2 [GB][FA] [EG]2 [GB]2 | [Ge]2 [Ge][Bd] [Ac]2 [Ac]2 | %3
 [GB]2 [GB]2 [EB]2 [FA][EG] | [DF]6 [EG]2 | [GB]2 [GB][FA] [EG]2 [GB]2 | %6
 [Ge]2 [Ge][Bd] [Ac]2 [Ac]2 | [GB]2 [EG]2 [FA]2 [EG][DF] | E6 [EG]2 | [GB]2 [GB]2 [Be]2 [Ac]2 | %10
 [GB]4 [EG]2 [EG]2 | [GB]2 [GB]2 [EB]2 [FA][EG] | [DF]6 [EG]2 | [GB]2 [GB][FA] [EG]2 [GB]2 | %14
 [Ge]2 [Ge][Bd] [Ac]2 [Ac]2 | [GB]2 [EG]2 [FA]2 [EG][DF] | E6 z2 |] %17
V:2
 z4 z2 [E,B,]2 | [E,E]2 [E,E]2 [E,B,]2 [E,E]2 | [E,B,]2 B,-[G,B,] [A,E]2 [A,E]2 | %3
w: 1.~We~|thank~ Thee,~ Lord,~ for~|life~ and~ * breath,~ Pro|
 [E,E]2 [E,E]2 [G,B,]2 B,-[E,B,] | [B,,B,]6 [E,B,]2 | [E,E]2 [E,E]2 [E,B,]2 [E,E]2 | %6
w: vid ed~ us~ so~ *|free;~ For~|at~ Thy~ hand~ we~|
 [E,B,]2 B,-[G,B,] [A,E]2 [A,E]2 | [B,E]2 B,2 [B,,B,]2 B,A, | [E,G,]6 [E,B,]2 | %9
w: live~ and~ * move�~ Our~|all~ must~ come~ from~ *|Thee.~ *|
 [E,E]2 [E,E]2 [G,E]2 [A,E]2 | [E,E]4 [E,B,]2 [E,B,]2 | [E,E]2 [E,E]2 [G,B,]2 B,-[E,B,] | %12
w: |||
 [B,,B,]6 [E,B,]2 | [E,E]2 [E,E]2 [E,B,]2 [E,E]2 | [E,B,]2 B,-[G,B,] [A,E]2 [A,E]2 | %15
w: |||
 [B,E]2 B,2 [B,,B,]2 B,A, | [E,G,]6 z2 |] %17
w: ||
V:3
 x8 | x8 | z2 .E,2 z4 | z4 z2 .F,2 | x8 | x8 | z2 .E,2 z4 | z4 z2 B,,2 | x8 | x8 | x8 | %11
 z4 z2 .F,2 | x8 | x8 | z2 .E,2 z4 | z4 z2 B,,2 | x8 |] %17

